NotoEmoji/emoji_u1f18e.svg

<svg enable-background="new 0 0 128 128" viewBox="0 0 128 128" xmlns="http://www.w3.org/2000/svg"><path d="m116 4h-104c-4.42 0-8 3.58-8 8v104c0 4.42 3.58 8 8 8h104c4.42 0 8-3.58 8-8v-104c0-4.42-3.58-8-8-8z" fill="#c33"/><path d="m109.7 4h-98.2c-4.13.03-7.47 3.37-7.5 7.5v97.9c-.01 4.14 3.34 7.49 7.48 7.5h.02 98.1c4.14.01 7.49-3.34 7.5-7.48 0-.01 0-.01 0-.02v-97.9c.09-4.05-3.13-7.41-7.18-7.5-.07 0-.15 0-.22 0z" fill="#f44336"/><path d="m39.7 12.9c0-2.3-1.6-3-10.8-2.7-7.7.3-11.5 1.2-13.8 4s-2.9 8.5-3 15.3c0 4.8 0 9.3 2.5 9.3 3.4 0 3.4-7.9 6.2-12.3 5.4-8.7 18.9-10.6 18.9-13.6z" fill="#ff8a80"/><g fill="#fafafa"><path d="m30.32 36.87h11.88l20.62 54.89h-11.42l-4.6-13.11h-21.01l-4.6 13.11h-11.42zm13.11 32.28-4.83-13.8-1.99-6.59h-.61l-2 6.59-4.91 13.8z"/><path d="m70.26 36.87h21.47c3.07 0 5.89.64 8.47 1.92s4.61 3.02 6.1 5.21c1.48 2.2 2.22 4.6 2.22 7.21 0 2.76-.68 5.15-2.03 7.17s-3.13 3.56-5.33 4.64v.61c2.86 1.02 5.14 2.65 6.82 4.87 1.69 2.22 2.53 4.89 2.53 8.01 0 3.02-.81 5.69-2.42 8.01-1.61 2.33-3.78 4.12-6.52 5.37s-5.76 1.88-9.09 1.88h-22.22zm20.7 22.39c2.25 0 4.05-.63 5.41-1.88 1.35-1.25 2.03-2.82 2.03-4.72 0-1.84-.65-3.39-1.96-4.64-1.3-1.25-3.03-1.88-5.17-1.88h-10.66v13.11h10.35zm1.15 23.07c2.5 0 4.46-.65 5.87-1.96 1.41-1.3 2.11-3 2.11-5.1s-.72-3.81-2.15-5.14-3.48-1.99-6.13-1.99h-11.2v14.18h11.5z"/></g></svg>

<?xml version="1.0" encoding="utf-8"?>
<!-- Generator: Adobe Illustrator 25.2.3, SVG Export Plug-In . SVG Version: 6.00 Build 0)  -->
<svg version="1.1" id="Layer_2" xmlns="http://www.w3.org/2000/svg" xmlns:xlink="http://www.w3.org/1999/xlink" x="0px" y="0px"
	 viewBox="0 0 128 128" style="enable-background:new 0 0 128 128;" xml:space="preserve">
<g>
	<path style="fill:#CC3333;" d="M116,4H12c-4.42,0-8,3.58-8,8v104c0,4.42,3.58,8,8,8h104c4.42,0,8-3.58,8-8V12
		C124,7.58,120.42,4,116,4z"/>
	<path style="fill:#F44336;" d="M109.7,4H11.5C7.37,4.03,4.03,7.37,4,11.5v97.9c-0.01,4.14,3.34,7.49,7.48,7.5c0.01,0,0.01,0,0.02,0
		h98.1c4.14,0.01,7.49-3.34,7.5-7.48c0-0.01,0-0.01,0-0.02V11.5c0.09-4.05-3.13-7.41-7.18-7.5C109.85,4,109.77,4,109.7,4z"/>
	<path style="fill:#FF8A80;" d="M39.7,12.9c0-2.3-1.6-3-10.8-2.7c-7.7,0.3-11.5,1.2-13.8,4s-2.9,8.5-3,15.3c0,4.8,0,9.3,2.5,9.3
		c3.4,0,3.4-7.9,6.2-12.3C26.2,17.8,39.7,15.9,39.7,12.9z"/>
	<g>
		<path style="fill:#FAFAFA;" d="M30.32,36.87H42.2l20.62,54.89H51.4l-4.6-13.11H25.79l-4.6,13.11H9.77L30.32,36.87z M43.43,69.15
			l-4.83-13.8l-1.99-6.59h-0.61L34,55.35l-4.91,13.8H43.43z"/>
		<path style="fill:#FAFAFA;" d="M70.26,36.87h21.47c3.07,0,5.89,0.64,8.47,1.92c2.58,1.28,4.61,3.02,6.1,5.21
			c1.48,2.2,2.22,4.6,2.22,7.21c0,2.76-0.68,5.15-2.03,7.17c-1.35,2.02-3.13,3.56-5.33,4.64v0.61c2.86,1.02,5.14,2.65,6.82,4.87
			c1.69,2.22,2.53,4.89,2.53,8.01c0,3.02-0.81,5.69-2.42,8.01c-1.61,2.33-3.78,4.12-6.52,5.37c-2.74,1.25-5.76,1.88-9.09,1.88H70.26
			V36.87z M90.96,59.26c2.25,0,4.05-0.63,5.41-1.88c1.35-1.25,2.03-2.82,2.03-4.72c0-1.84-0.65-3.39-1.96-4.64
			c-1.3-1.25-3.03-1.88-5.17-1.88H80.61v13.11H90.96z M92.11,82.33c2.5,0,4.46-0.65,5.87-1.96c1.41-1.3,2.11-3,2.11-5.1
			s-0.72-3.81-2.15-5.14c-1.43-1.33-3.48-1.99-6.13-1.99H80.61v14.18H92.11z"/>
	</g>
</g>
</svg>
